public/svg/youtube.svg

<svg width="52" height="52" viewBox="0 0 52 52" fill="none" xmlns="http://www.w3.org/2000/svg">
<g opacity="0.6">
<path d="M47.4507 15.0794C47.028 12.7914 45.0201 11.1274 42.6952 10.6074C39.2079 9.87937 32.7616 9.35938 25.7868 9.35938C18.8121 9.35938 12.2601 9.87937 8.77278 10.6074C6.44788 11.1274 4.44 12.6874 4.01729 15.0794C3.59458 17.6794 3.17188 21.3194 3.17188 25.9994C3.17188 30.6794 3.59458 34.3194 4.12297 36.9194C4.54568 39.2074 6.55355 40.8714 8.87846 41.3914C12.5772 42.1194 18.9178 42.6394 25.8925 42.6394C32.8672 42.6394 39.2079 42.1194 42.9066 41.3914C45.2315 40.8714 47.2394 39.3114 47.6621 36.9194C48.0848 34.3194 48.6132 30.5754 48.7188 25.9994C48.5075 21.3194 47.9791 17.6794 47.4507 15.0794ZM20.0803 33.2794V18.7194L32.9729 25.9994L20.0803 33.2794Z" fill="white"/>
</g>
</svg>

<svg width="52" height="52" fill="none" xmlns="http://www.w3.org/2000/svg"><path d="M47.45 15.08c-.422-2.289-2.43-3.953-4.755-4.473-3.487-.728-9.933-1.248-16.908-1.248-6.975 0-13.527.52-17.014 1.248-2.325.52-4.333 2.08-4.756 4.472-.422 2.6-.845 6.24-.845 10.92s.423 8.32.951 10.92c.423 2.288 2.43 3.952 4.755 4.472 3.7.728 10.04 1.248 17.014 1.248 6.975 0 13.316-.52 17.015-1.248 2.325-.52 4.332-2.08 4.755-4.472.423-2.6.951-6.344 1.057-10.92-.212-4.68-.74-8.32-1.268-10.92Zm-27.37 18.2V18.72L32.973 26 20.08 33.28Z" fill="#fff"/></svg>
